desktop/src/assets/images/referee.svg

<?xml version="1.0" encoding="UTF-8" standalone="no"?>
<svg width="52px" height="51px" viewBox="0 0 52 51" version="1.1" xmlns="http://www.w3.org/2000/svg" xmlns:xlink="http://www.w3.org/1999/xlink" xmlns:sketch="http://www.bohemiancoding.com/sketch/ns">
    <!-- Generator: Sketch 3.3.1 (12002) - http://www.bohemiancoding.com/sketch -->
    <title>referee</title>
    <desc>Created with Sketch.</desc>
    <defs></defs>
    <g id="Symbols" stroke="none" stroke-width="1" fill="none" fill-rule="evenodd" sketch:type="MSPage">
        <g id="GUI" sketch:type="MSArtboardGroup" transform="translate(-525.000000, -1141.000000)" fill="#000000">
            <path d="M559.071591,1170.73359 L554.108356,1170.73359 C550.545856,1170.73359 547.230414,1171.81247 544.470304,1173.65859 C544.419569,1173.68803 544.371591,1173.7197 544.325819,1173.75692 C539.746959,1176.88581 536.733723,1182.1447 536.733723,1188.0947 C536.733723,1188.13636 536.737032,1188.17692 536.737032,1188.21803 L536.737032,1188.30636 C536.737032,1188.91859 537.239422,1189.62247 537.847142,1189.62247 L537.850451,1189.62247 C538.459275,1189.62247 538.952289,1188.98636 538.950084,1188.37303 C538.950084,1188.30692 538.947878,1188.10859 538.943466,1188.04914 C538.943466,1188.03803 538.944017,1187.95581 538.944569,1187.95581 L538.942914,1187.95581 C538.947326,1183.53636 540.862032,1179.58636 543.90615,1176.85025 L543.90615,1189.62247 C543.90615,1190.23581 544.400267,1190.73359 545.009091,1190.73359 C545.617914,1190.73359 546.112032,1190.23581 546.112032,1189.62247 L546.112032,1175.20636 C547.613135,1174.2847 549.286297,1173.61359 551.075267,1173.25525 L551.075267,1190.73359 C551.075267,1191.34692 551.569385,1191.8447 552.178209,1191.8447 C552.787032,1191.8447 553.28115,1191.34692 553.28115,1190.73359 L553.28115,1172.97859 C553.555231,1172.9647 553.830414,1172.95581 554.108356,1172.95581 L557.692914,1172.95581 L557.692914,1190.73359 C557.692914,1191.34692 558.187032,1191.8447 558.795856,1191.8447 C559.404679,1191.8447 559.898797,1191.34692 559.898797,1190.73359 L559.898797,1181.01136 L564.862032,1181.01136 L564.862032,1189.62247 C564.862032,1190.23581 565.35615,1190.73359 565.964973,1190.73359 C566.573797,1190.73359 567.067914,1190.23581 567.067914,1189.62247 L567.067914,1175.23914 C571.367731,1177.91414 574.237032,1182.67525 574.237032,1188.0947 C574.237032,1188.70803 574.73115,1189.20581 575.339973,1189.20581 C575.948797,1189.20581 576.442914,1188.70803 576.442914,1188.0947 C576.442914,1178.52192 568.650084,1170.73359 559.071591,1170.73359 L559.071591,1170.73359 Z M564.862032,1174.62247 L564.862032,1178.78914 L559.898797,1178.78914 L559.898797,1172.97914 C561.68887,1173.07581 563.397878,1173.48247 564.971223,1174.14803 C564.902841,1174.29247 564.862032,1174.45192 564.862032,1174.62247 L564.862032,1174.62247 Z M556.038503,1167.40025 C562.423981,1167.40025 567.619385,1162.16692 567.619385,1155.73359 L567.619385,1153.51136 C567.619385,1152.32303 567.440157,1151.17636 567.110378,1150.09525 C567.089973,1149.96303 567.045304,1149.8397 566.982436,1149.72803 C565.417363,1145.14859 561.108172,1141.8447 556.038503,1141.8447 C549.652473,1141.8447 544.45762,1147.07803 544.45762,1153.51136 L544.45762,1155.73359 C544.45762,1162.16692 549.652473,1167.40025 556.038503,1167.40025 L556.038503,1167.40025 Z M556.038503,1144.06692 C559.64512,1144.06692 562.776922,1146.13192 564.344753,1149.14692 C557.037216,1148.87525 552.220672,1146.89525 551.432069,1145.29525 C552.79365,1144.51747 554.363686,1144.06692 556.038503,1144.06692 L556.038503,1144.06692 Z M546.663503,1153.51136 C546.663503,1150.75859 547.845856,1148.28581 549.716444,1146.55747 C551.346039,1149.05081 556.576186,1151.19636 565.152657,1151.33692 C565.316995,1152.03636 565.413503,1152.76192 565.413503,1153.51136 L565.413503,1155.73359 C565.413503,1160.94136 561.207988,1165.17803 556.038503,1165.17803 C550.869017,1165.17803 546.663503,1160.94136 546.663503,1155.73359 L546.663503,1153.51136 L546.663503,1153.51136 Z M541.700267,1168.37247 L541.700267,1161.98359 C541.700267,1160.37303 540.40376,1159.06692 538.805047,1159.06692 L537.832804,1159.06692 C537.759459,1156.91081 535.999716,1155.17803 533.841811,1155.17803 L529.705782,1155.17803 C527.501003,1155.17803 525.70762,1156.9847 525.70762,1159.20581 L525.70762,1165.5947 C525.70762,1167.81581 527.501003,1169.62247 529.705782,1169.62247 L532.064973,1169.62247 C532.527106,1170.60636 533.515341,1171.28914 534.669017,1171.28914 L538.805047,1171.28914 C540.40376,1171.28914 541.700267,1169.98303 541.700267,1168.37247 L541.700267,1168.37247 Z M535.634091,1165.5947 C535.634091,1166.59025 534.830047,1167.40025 533.841811,1167.40025 L529.705782,1167.40025 C528.717547,1167.40025 527.913503,1166.59025 527.913503,1165.5947 L527.913503,1159.20581 C527.913503,1158.21025 528.717547,1157.40025 529.705782,1157.40025 L533.841811,1157.40025 C534.830047,1157.40025 535.634091,1158.21025 535.634091,1159.20581 L535.634091,1165.5947 L535.634091,1165.5947 Z" id="referee" sketch:type="MSShapeGroup"></path>
        </g>
    </g>
</svg>

<?xml version="1.0" encoding="utf-8"?>
<!-- Generator: Adobe Illustrator 17.1.0, SVG Export Plug-In . SVG Version: 6.00 Build 0)  -->
<!DOCTYPE svg PUBLIC "-//W3C//DTD SVG 1.1//EN" "http://www.w3.org/Graphics/SVG/1.1/DTD/svg11.dtd">
<svg version="1.1" id="Calque_1" xmlns:sketch="http://www.bohemiancoding.com/sketch/ns"
	 xmlns="http://www.w3.org/2000/svg" xmlns:xlink="http://www.w3.org/1999/xlink" x="0px" y="0px" viewBox="0 0 52 51"
	 enable-background="new 0 0 52 51" xml:space="preserve">
<title>referee</title>
<desc>Created with Sketch.</desc>
<g id="Symbols" sketch:type="MSPage">
	<g id="GUI" transform="translate(-525.000000, -1141.000000)" sketch:type="MSArtboardGroup">
		<path id="referee" sketch:type="MSShapeGroup" fill="#D0021B" d="M559.1,1170.7h-5c-3.6,0-6.9,1.1-9.6,2.9c-0.1,0-0.1,0.1-0.1,0.1
			c-4.6,3.1-7.6,8.4-7.6,14.3c0,0,0,0.1,0,0.1v0.1c0,0.6,0.5,1.3,1.1,1.3h0c0.6,0,1.1-0.6,1.1-1.2c0-0.1,0-0.3,0-0.3
			c0,0,0-0.1,0-0.1h0c0-4.4,1.9-8.4,5-11.1v12.8c0,0.6,0.5,1.1,1.1,1.1s1.1-0.5,1.1-1.1v-14.4c1.5-0.9,3.2-1.6,5-2v17.5
			c0,0.6,0.5,1.1,1.1,1.1s1.1-0.5,1.1-1.1V1173c0.3,0,0.5,0,0.8,0h3.6v17.8c0,0.6,0.5,1.1,1.1,1.1s1.1-0.5,1.1-1.1v-9.7h5v8.6
			c0,0.6,0.5,1.1,1.1,1.1s1.1-0.5,1.1-1.1v-14.4c4.3,2.7,7.2,7.4,7.2,12.9c0,0.6,0.5,1.1,1.1,1.1s1.1-0.5,1.1-1.1
			C576.4,1178.5,568.7,1170.7,559.1,1170.7L559.1,1170.7z M564.9,1174.6v4.2h-5v-5.8c1.8,0.1,3.5,0.5,5.1,1.2
			C564.9,1174.3,564.9,1174.5,564.9,1174.6L564.9,1174.6z M556,1167.4c6.4,0,11.6-5.2,11.6-11.7v-2.2c0-1.2-0.2-2.3-0.5-3.4
			c0-0.1-0.1-0.3-0.1-0.4c-1.6-4.6-5.9-7.9-10.9-7.9c-6.4,0-11.6,5.2-11.6,11.7v2.2C544.5,1162.2,549.7,1167.4,556,1167.4
			L556,1167.4z M556,1144.1c3.6,0,6.7,2.1,8.3,5.1c-7.3-0.3-12.1-2.3-12.9-3.9C552.8,1144.5,554.4,1144.1,556,1144.1L556,1144.1z
			 M546.7,1153.5c0-2.8,1.2-5.2,3.1-7c1.6,2.5,6.9,4.6,15.4,4.8c0.2,0.7,0.3,1.4,0.3,2.2v2.2c0,5.2-4.2,9.4-9.4,9.4
			s-9.4-4.2-9.4-9.4V1153.5L546.7,1153.5z M541.7,1168.4v-6.4c0-1.6-1.3-2.9-2.9-2.9h-1c-0.1-2.2-1.8-3.9-4-3.9h-4.1
			c-2.2,0-4,1.8-4,4v6.4c0,2.2,1.8,4,4,4h2.4c0.5,1,1.5,1.7,2.6,1.7h4.1C540.4,1171.3,541.7,1170,541.7,1168.4L541.7,1168.4z
			 M535.6,1165.6c0,1-0.8,1.8-1.8,1.8h-4.1c-1,0-1.8-0.8-1.8-1.8v-6.4c0-1,0.8-1.8,1.8-1.8h4.1c1,0,1.8,0.8,1.8,1.8V1165.6
			L535.6,1165.6z"/>
	</g>
</g>
</svg>
